symbolic/mimes/font-x-generic-symbolic.svg

<svg width="16" height="16" version="1.1" xmlns="http://www.w3.org/2000/svg">
 <path d="m5.4688 3-3.6367 10h1.0645l1.1035-3.0352v0.035156h2.0352a4.5 4.5 0 0 1-0.035156-0.5 4.5 4.5 0 0 1 0.035156-0.5h-1.6855l1.8184-5h0.66406l0.75391 2.0742a4.5 4.5 0 0 1 0.85742-0.56641l-0.91211-2.5078h-0.53125-1-0.53125zm4.0254 5.3984a1.5 1.5 0 0 0-0.49414 1.1016 1.5 1.5 0 0 0 1.4375 1.4922l-0.94336-2.5938z" fill="gray"/>
 <path d="m10.5 6a3.5 3.5 0 0 0-3.5 3.5 3.5 3.5 0 0 0 3.5 3.5 3.5 3.5 0 0 0 2.6562-1.2207c0.30281 0.71831 1.0128 1.2207 1.8438 1.2207v-1c-0.554 0-1-0.446-1-1v-1-4h-1v1.0527a3.5 3.5 0 0 0-2.5-1.0527zm0 1a2.5 2.5 0 0 1 2.5 2.5 2.5 2.5 0 0 1-2.5 2.5 2.5 2.5 0 0 1-2.5-2.5 2.5 2.5 0 0 1 2.5-2.5z" fill="gray"/>
</svg>

<svg xmlns="http://www.w3.org/2000/svg" width="16" height="16"><path fill="gray" d="M5.469 3 1.832 13h1.065L4 9.965V10h2.035A5 5 0 0 1 6 9.5a5 5 0 0 1 .035-.5H4.35l1.818-5h.664l.754 2.074a4.5 4.5 0 0 1 .858-.566L7.53 3zm4.025 5.398A1.5 1.5 0 0 0 9 9.5a1.5 1.5 0 0 0 1.438 1.492z"/><path fill="gray" d="M10.5 6A3.5 3.5 0 0 0 7 9.5a3.5 3.5 0 0 0 3.5 3.5 3.5 3.5 0 0 0 2.656-1.22A2 2 0 0 0 15 13v-1c-.554 0-1-.446-1-1V6h-1v1.053A3.5 3.5 0 0 0 10.5 6m0 1A2.5 2.5 0 0 1 13 9.5a2.5 2.5 0 0 1-2.5 2.5A2.5 2.5 0 0 1 8 9.5 2.5 2.5 0 0 1 10.5 7"/></svg>
